img/svg/homes.svg

<svg width="54" height="45" viewBox="0 0 54 45" fill="none" xmlns="http://www.w3.org/2000/svg">
<path d="M12.7746 21.0552C11.2878 21.0588 9.86291 21.6508 8.81138 22.7019C7.75986 23.753 7.16724 25.1777 7.16309 26.6645V39.629H8.73809V28.9122H16.7931V39.629H18.3681V26.669C18.3651 25.1845 17.7755 23.7614 16.7277 22.7099C15.68 21.6583 14.259 21.0635 12.7746 21.0552ZM8.74708 27.3305V26.6555C8.74708 25.5873 9.17141 24.5629 9.92671 23.8076C10.682 23.0523 11.7064 22.628 12.7746 22.628C13.8427 22.628 14.8672 23.0523 15.6225 23.8076C16.3778 24.5629 16.8021 25.5873 16.8021 26.6555V27.3305H8.74708Z" fill="white"/>
<path d="M52.155 39.6288H51.93V16.5798H52.2697C52.5004 16.5803 52.7283 16.5291 52.9365 16.43C53.1448 16.3308 53.3282 16.1862 53.4733 16.0069C53.6183 15.8275 53.7213 15.6179 53.7747 15.3935C53.8281 15.1691 53.8305 14.9355 53.7817 14.7101L51.0075 1.77259C50.9327 1.4278 50.7426 1.11883 50.4685 0.896694C50.1944 0.674561 49.8528 0.55256 49.5 0.550842H6.0345C5.68115 0.552359 5.33885 0.674195 5.06401 0.896277C4.78917 1.11836 4.59818 1.42744 4.5225 1.77259L2.25 12.3408L0.50625 13.8123C0.284365 13.9998 0.145981 14.2676 0.121511 14.5571C0.0970402 14.8465 0.188486 15.1338 0.37575 15.3558L2.08575 17.3808V39.6288H1.845C1.35586 39.6294 0.886921 39.824 0.541045 40.1699C0.19517 40.5157 0.000595425 40.9847 0 41.4738L0 44.1738C-4.21667e-07 44.2777 0.0205014 44.3806 0.0603306 44.4766C0.10016 44.5725 0.158534 44.6597 0.232107 44.7331C0.305681 44.8064 0.393008 44.8645 0.489084 44.9041C0.585161 44.9437 0.688099 44.9639 0.792 44.9636H53.217C53.3207 44.9627 53.4232 44.9414 53.5187 44.9009C53.6142 44.8604 53.7007 44.8014 53.7734 44.7275C53.8461 44.6535 53.9036 44.566 53.9424 44.4698C53.9813 44.3736 54.0009 44.2708 54 44.1671V41.4671C53.9976 40.9791 53.8022 40.5119 53.4566 40.1675C53.1109 39.8231 52.6429 39.6294 52.155 39.6288ZM6.075 2.13259H49.473L52.2315 14.9981H25.4115C25.4228 14.9107 25.4228 14.8222 25.4115 14.7348C25.3988 14.5918 25.3579 14.4527 25.2911 14.3257C25.2243 14.1986 25.1329 14.0861 25.0222 13.9946L14.1997 4.95859C13.7507 4.58049 13.1825 4.37315 12.5955 4.37315C12.0085 4.37315 11.4403 4.58049 10.9912 4.95859L4.24125 10.6646L6.075 2.13259ZM47.025 35.4146H23.274V17.8038L24.3157 16.5551C24.3732 16.5687 24.4321 16.5755 24.4912 16.5753H50.3527V35.4101L47.025 35.4146ZM50.3437 36.9896V39.6288H23.274V36.9963L50.3437 36.9896ZM1.90575 14.7078L12.0127 6.17584C12.1759 6.0358 12.3838 5.95882 12.5989 5.95882C12.8139 5.95882 13.0218 6.0358 13.185 6.17584L23.643 14.8991L22.4752 16.3008L13.1152 8.48884C12.9702 8.36956 12.7878 8.30505 12.6 8.30659C12.4138 8.30694 12.2337 8.37308 12.0915 8.49334L3.0825 16.1028L1.90575 14.7078ZM16.803 39.6288H3.67425V17.6688L3.7305 17.6261L5.913 15.7833L7.78725 14.2083L12.6112 10.1358L17.4915 14.2038C18.0915 14.7665 18.7249 15.2925 19.3882 15.7788L21.6922 17.7026V39.6288H16.803ZM52.425 43.3751H1.575V41.4693C1.57499 41.4341 1.58201 41.3992 1.59563 41.3667C1.60925 41.3342 1.62921 41.3047 1.65435 41.28C1.67948 41.2553 1.70928 41.2358 1.74201 41.2227C1.77475 41.2096 1.80976 41.2032 1.845 41.2038H52.155C52.2246 41.2044 52.2912 41.2323 52.3405 41.2816C52.3897 41.3308 52.4176 41.3974 52.4182 41.4671L52.425 43.3751Z" fill="white"/>
<path d="M45.1651 20.2361H28.4701C28.2613 20.2361 28.061 20.3191 27.9133 20.4668C27.7656 20.6145 27.6826 20.8148 27.6826 21.0236V30.9709C27.6826 31.1797 27.7656 31.3801 27.9133 31.5277C28.061 31.6754 28.2613 31.7584 28.4701 31.7584H45.1651C45.2685 31.7584 45.3709 31.738 45.4665 31.6984C45.562 31.6589 45.6488 31.6009 45.722 31.5277C45.7951 31.4546 45.8531 31.3678 45.8927 31.2723C45.9322 31.1767 45.9526 31.0743 45.9526 30.9709V21.0236C45.9526 20.9202 45.9322 20.8178 45.8927 20.7223C45.8531 20.6267 45.7951 20.5399 45.722 20.4668C45.6488 20.3937 45.562 20.3357 45.4665 20.2961C45.3709 20.2565 45.2685 20.2361 45.1651 20.2361ZM44.3799 25.2086H37.6051V21.8111H44.3799V25.2086ZM36.0301 21.8111V25.2086H29.2531V21.8111H36.0301ZM29.2531 26.7859H36.0256V30.1789H29.2531V26.7859ZM37.6006 30.1834V26.7859H44.3754V30.1789L37.6006 30.1834Z" fill="white"/>
</svg>

<svg width="54" height="45" viewBox="0 0 54 45" fill="none" xmlns="http://www.w3.org/2000/svg"><path d="M12.775 21.055a5.625 5.625 0 00-5.612 5.61v12.964h1.575V28.912h8.055V39.63h1.575V26.67a5.625 5.625 0 00-5.593-5.614zm-4.028 6.276v-.675a4.028 4.028 0 118.055 0v.675H8.747z" fill="#fff"/><path d="M52.155 39.629h-.225v-23.05h.34a1.544 1.544 0 001.512-1.869L51.008 1.773A1.55 1.55 0 0049.5.55H6.035a1.555 1.555 0 00-1.513 1.222L2.25 12.34.506 13.812a1.096 1.096 0 00-.13 1.544l1.71 2.025v22.248h-.241A1.847 1.847 0 000 41.474v2.7a.79.79 0 00.792.79h52.425a.79.79 0 00.783-.797v-2.7a1.848 1.848 0 00-1.845-1.838zM6.075 2.133h43.398l2.758 12.865h-26.82a1.027 1.027 0 000-.263 1.085 1.085 0 00-.389-.74L14.2 4.959a2.49 2.49 0 00-3.209 0l-6.75 5.706 1.834-8.532zm40.95 33.282H23.274V17.804l1.042-1.249c.057.014.116.02.175.02h25.862V35.41l-3.328.005zm3.319 1.575v2.639h-27.07v-2.633l27.07-.006zM1.906 14.708l10.107-8.532a.9.9 0 011.172 0l10.458 8.723-1.168 1.402-9.36-7.812a.8.8 0 00-1.024.004l-9.008 7.61-1.177-1.395zm14.897 24.92H3.674v-21.96l.057-.042 2.182-1.843 1.874-1.575 4.824-4.072 4.88 4.068c.6.563 1.234 1.088 1.897 1.575l2.304 1.924v21.926h-4.889zm35.622 3.747H1.575V41.47a.265.265 0 01.27-.265h50.31a.266.266 0 01.263.263l.007 1.908z" fill="#fff"/><path d="M45.165 20.236H28.47a.788.788 0 00-.787.788v9.947a.787.787 0 00.787.787h16.695a.788.788 0 00.788-.787v-9.947a.788.788 0 00-.788-.788zm-.785 4.973h-6.775V21.81h6.775v3.398zm-8.35-3.398v3.398h-6.777V21.81h6.777zm-6.777 4.975h6.773v3.393h-6.773v-3.393zm8.348 3.397v-3.397h6.774v3.393l-6.774.004z" fill="#fff"/></svg>
